assets/images/canterbury.svg

<svg width="500" height="180" viewBox="0 0 500 180" fill="none" xmlns="http://www.w3.org/2000/svg">
<g clip-path="url(#clip0_0_5)">
<rect width="500" height="180" fill="white"/>
<rect y="31" width="113" height="117" rx="10" fill="#390B37"/>
<path d="M160.319 135.731C158.213 136.703 155.216 137.999 150.599 137.999C141.608 137.999 135.209 131.357 135.209 121.151C135.209 112.079 140.555 104.06 151.004 104.06C155.297 104.06 158.294 105.275 160.157 106.328L161.534 103.169C160.076 102.116 156.107 100.739 151.328 100.739C139.745 100.739 131.321 109.163 131.321 121.475C131.321 133.139 138.773 141.32 149.951 141.32C155.621 141.32 159.671 139.619 161.372 138.809L160.319 135.731Z" fill="#390B37"/>
<path d="M170.143 140.51V101.63H166.255V140.51H170.143ZM168.199 87.131C166.417 87.131 165.04 88.751 165.04 90.533C165.04 92.315 166.255 93.854 168.037 93.854C170.062 93.854 171.277 92.315 171.277 90.533C171.277 88.67 169.981 87.131 168.199 87.131Z" fill="#390B37"/>
<path d="M180.996 94.502V101.63H174.435V104.789H180.996V129.332C180.996 133.301 181.644 136.622 183.426 138.647C184.884 140.51 187.233 141.401 190.068 141.401C192.417 141.401 194.199 140.996 195.495 140.429L195.009 137.513C194.037 137.837 192.579 138.08 190.554 138.08C186.423 138.08 184.884 135.002 184.884 130.061V104.789H195.981V101.63H184.884V93.044L180.996 94.502Z" fill="#390B37"/>
<path d="M198.459 101.63L212.877 137.675C213.201 138.485 213.363 139.052 213.363 139.376C213.363 139.781 213.201 140.267 212.877 141.077C210.933 145.694 208.341 148.934 206.397 150.878C204.129 153.065 201.537 154.442 199.593 155.171L200.808 158.411C201.78 158.087 204.534 156.953 207.612 154.361C212.715 149.906 216.036 142.697 220.734 130.628L232.398 101.63H228.267L218.79 126.821C217.575 129.98 216.603 133.058 215.793 135.407H215.631C214.902 132.977 213.849 129.818 212.796 127.064L202.59 101.63H198.459Z" fill="#390B37"/>
<path d="M273.561 135.731C271.455 136.703 268.458 137.999 263.841 137.999C254.85 137.999 248.451 131.357 248.451 121.151C248.451 112.079 253.797 104.06 264.246 104.06C268.539 104.06 271.536 105.275 273.399 106.328L274.776 103.169C273.318 102.116 269.349 100.739 264.57 100.739C252.987 100.739 244.563 109.163 244.563 121.475C244.563 133.139 252.015 141.32 263.193 141.32C268.863 141.32 272.913 139.619 274.614 138.809L273.561 135.731Z" fill="#390B37"/>
<path d="M296.264 100.739C286.625 100.739 277.877 108.11 277.877 121.394C277.877 133.544 285.653 141.401 295.697 141.401C304.364 141.401 314.327 135.164 314.327 120.665C314.327 108.839 307.037 100.739 296.264 100.739ZM296.183 103.979C306.47 103.979 310.439 113.78 310.439 120.908C310.439 130.871 304.04 138.161 295.94 138.161C288.002 138.161 281.765 130.871 281.765 121.151C281.765 112.808 286.22 103.979 296.183 103.979Z" fill="#390B37"/>
<path d="M348.123 101.63H344.235V125.849C344.235 127.388 343.911 128.927 343.506 130.142C341.805 134.03 337.674 137.999 332.004 137.999C324.309 137.999 321.717 131.924 321.717 123.5V101.63H317.829V124.229C317.829 138.89 326.172 141.401 331.113 141.401C337.998 141.401 342.453 137.189 344.397 133.544H344.559L344.802 140.51H348.447C348.204 137.513 348.123 134.435 348.123 131.033V101.63Z" fill="#390B37"/>
<path d="M355.109 140.51H358.997V116.453C358.997 115.238 359.24 113.942 359.483 112.97C361.022 107.948 365.72 104.06 371.147 104.06C379.166 104.06 381.92 110.459 381.92 117.506V140.51H385.808V117.182C385.808 102.602 375.926 100.739 372.2 100.739C365.882 100.739 360.941 104.303 358.835 108.677H358.673L358.43 101.63H354.785C355.028 104.708 355.109 107.381 355.109 110.945V140.51Z" fill="#390B37"/>
<path d="M420.649 135.731C418.543 136.703 415.546 137.999 410.929 137.999C401.938 137.999 395.539 131.357 395.539 121.151C395.539 112.079 400.885 104.06 411.334 104.06C415.627 104.06 418.624 105.275 420.487 106.328L421.864 103.169C420.406 102.116 416.437 100.739 411.658 100.739C400.075 100.739 391.651 109.163 391.651 121.475C391.651 133.139 399.103 141.32 410.281 141.32C415.951 141.32 420.001 139.619 421.702 138.809L420.649 135.731Z" fill="#390B37"/>
<path d="M432.093 140.51V101.63H428.205V140.51H432.093ZM430.149 87.131C428.367 87.131 426.99 88.751 426.99 90.533C426.99 92.315 428.205 93.854 429.987 93.854C432.012 93.854 433.227 92.315 433.227 90.533C433.227 88.67 431.931 87.131 430.149 87.131Z" fill="#390B37"/>
<path d="M439.868 140.51H443.756V84H439.868V140.51Z" fill="#390B37"/>
<path d="M161.21 69.385C159.347 70.195 157.079 70.681 154.163 70.681C148.169 70.681 143.309 66.793 143.309 59.584C143.228 53.104 147.44 48.487 153.92 48.487C157.16 48.487 159.347 49.054 160.805 49.702L162.749 40.549C160.157 39.577 156.593 39.01 153.353 39.01C138.611 39.01 130.673 48.487 130.673 60.07C130.673 72.463 138.854 80.32 151.652 80.32C156.35 80.32 160.481 79.51 162.668 78.457L161.21 69.385Z" fill="#390B37"/>
<path d="M199.78 56.101C199.78 46.705 195.649 38.929 182.446 38.929C175.237 38.929 169.81 40.954 167.056 42.493L169.324 50.431C171.916 48.811 176.209 47.434 180.259 47.434C186.334 47.434 187.468 50.431 187.468 52.618V53.104C173.455 53.104 164.221 57.964 164.221 68.251C164.221 74.569 169 80.401 177.019 80.401C181.717 80.401 185.767 78.7 188.359 75.541H188.602L189.331 79.51H200.428C199.942 77.323 199.78 73.678 199.78 69.952V56.101ZM187.873 65.092C187.873 65.821 187.792 66.55 187.63 67.198C186.82 69.709 184.228 71.734 181.231 71.734C178.477 71.734 176.371 70.195 176.371 67.036C176.371 62.338 181.393 60.799 187.873 60.799V65.092Z" fill="#390B37"/>
<path d="M205.719 79.51H218.031V56.668C218.031 55.534 218.112 54.4 218.436 53.59C219.327 51.322 221.352 48.973 224.754 48.973C229.209 48.973 230.991 52.456 230.991 57.559V79.51H243.303V56.101C243.303 44.437 237.228 39.01 229.128 39.01C222.486 39.01 218.517 42.817 216.897 45.409H216.654L216.087 39.901H205.395C205.557 43.465 205.719 47.596 205.719 52.537V79.51Z" fill="#390B37"/>
<path d="M250.588 32.53V39.901H245.323V48.973H250.588V65.173C250.588 70.762 251.722 74.569 253.99 76.918C256.015 78.943 259.336 80.32 263.305 80.32C266.707 80.32 269.704 79.834 271.243 79.267L271.162 69.952C270.028 70.195 269.218 70.276 267.517 70.276C263.872 70.276 262.657 68.089 262.657 63.31V48.973H271.486V39.901H262.657V29.209L250.588 32.53Z" fill="#390B37"/>
<path d="M310.552 63.634C310.714 62.743 310.957 60.88 310.957 58.774C310.957 48.973 306.097 39.01 293.299 39.01C279.529 39.01 273.292 50.107 273.292 60.151C273.292 72.544 280.987 80.32 294.433 80.32C299.779 80.32 304.72 79.51 308.77 77.809L307.15 69.466C303.829 70.6 300.427 71.167 296.215 71.167C290.464 71.167 285.361 68.737 285.037 63.634H310.552ZM284.956 55.21C285.28 51.97 287.386 47.191 292.57 47.191C298.24 47.191 299.536 52.213 299.536 55.21H284.956Z" fill="#390B37"/>
<path d="M315.681 79.51H327.993V59.422C327.993 58.45 328.074 57.478 328.236 56.668C329.046 52.861 332.124 50.431 336.66 50.431C338.037 50.431 339.009 50.593 339.981 50.755V39.172C339.09 39.01 338.523 38.929 337.389 38.929C333.501 38.929 328.722 41.359 326.697 47.191H326.373L325.887 39.901H315.357C315.6 43.303 315.681 47.11 315.681 52.942V79.51Z" fill="#390B37"/>
<path d="M343.779 67.684C343.779 72.139 343.617 76.918 343.455 79.51H353.904L354.39 74.002H354.552C357.306 78.7 361.842 80.401 366.459 80.401C375.531 80.401 384.522 73.273 384.522 59.017C384.603 46.867 377.718 39.01 368.241 39.01C362.733 39.01 358.602 41.197 356.253 44.599H356.091V22L343.779 25V67.684ZM356.091 56.83C356.091 56.02 356.172 55.291 356.334 54.562C357.144 50.998 360.222 48.487 363.543 48.487C369.294 48.487 372.048 53.347 372.048 59.503C372.048 66.631 368.808 70.681 363.543 70.681C359.979 70.681 357.144 68.089 356.334 64.849C356.172 64.201 356.091 63.472 356.091 62.662V56.83Z" fill="#390B37"/>
<path d="M426.047 39.901H413.735V63.472C413.735 64.525 413.573 65.416 413.249 66.145C412.52 68.089 410.495 70.438 407.093 70.438C402.719 70.438 400.856 66.955 400.856 61.204V39.901H388.544V63.148C388.544 75.379 394.376 80.401 402.476 80.401C409.604 80.401 413.33 76.351 414.869 73.921H415.112L415.679 79.51H426.371C426.209 76.189 426.047 71.977 426.047 66.793V39.901Z" fill="#390B37"/>
<path d="M431.637 79.51H443.949V59.422C443.949 58.45 444.03 57.478 444.192 56.668C445.002 52.861 448.08 50.431 452.616 50.431C453.993 50.431 454.965 50.593 455.937 50.755V39.172C455.046 39.01 454.479 38.929 453.345 38.929C449.457 38.929 444.678 41.359 442.653 47.191H442.329L441.843 39.901H431.313C431.556 43.303 431.637 47.11 431.637 52.942V79.51Z" fill="#390B37"/>
<path d="M458.519 39.901L473.099 76.189C473.504 77.161 473.585 77.728 473.585 78.214C473.585 78.7 473.342 79.348 472.937 79.996C471.803 81.94 469.697 83.965 467.834 84.937C465.971 85.99 464.027 86.719 462.488 87.043L465.161 97.411C468.239 97.087 472.775 95.71 476.987 91.984C481.442 88.015 485.249 81.778 490.919 65.983L500.153 39.901H487.031L482.09 59.341C481.523 61.69 480.875 64.606 480.389 66.793H480.065C479.579 64.687 478.769 61.69 478.121 59.422L472.208 39.901H458.519Z" fill="#390B37"/>
<mask id="mask0_0_5" style="mask-type:alpha" maskUnits="userSpaceOnUse" x="44" y="45" width="75" height="126">
<path fill-rule="evenodd" clip-rule="evenodd" d="M45.3533 166.834L44.3454 170.061C53.3937 166.886 66.9783 165.268 66.9783 165.268L66.9926 157.915C66.9926 155.762 67.7803 154.488 69.0024 153.806L69.0083 137.569C69.0083 127.972 72.0392 118.986 82.0758 114.723C91.7696 118.992 95.1529 127.364 95.1529 137.531L95.1611 158.659C95.1611 158.659 95.161 158.659 95.161 158.659C96.3759 159.851 97.1685 161.539 97.1685 163.914L97.1828 165.135C97.1828 165.135 107.307 166.287 119 169.226L118.945 156.175L118.957 145.61V131.316L116.426 128.696L116.428 117.894V97.5061C116.337 97.2821 116.189 96.9091 116.063 96.5854C115.753 95.8299 115.361 95.6742 115.361 95.6742V91.5832C115.35 91.4564 115.281 91.1847 114.915 90.9473C114.411 90.6208 114.326 90.1974 114.326 90.1974L113.249 78.3992H113.242L112.165 90.1974C112.165 90.1974 112.077 90.6208 111.577 90.9473C111.208 91.1847 111.141 91.4564 111.135 91.5832V95.6742C111.135 95.6742 110.738 95.8299 110.428 96.5854C110.338 96.817 110.233 97.0763 110.149 97.286C110.11 97.3816 110.076 97.4669 110.049 97.5346V97.8288H110.044V106.248H107.1H106.611L105.403 99.0532L104.229 106.248H99.4015V72.5428H99.3849V65.7942C99.2852 65.5513 99.1086 65.1156 98.9578 64.7406C98.6158 63.8961 98.1749 63.7155 98.1749 63.7155V59.1404C98.1641 59.0001 98.0911 58.6957 97.6791 58.4286C97.1162 58.0616 97.0171 57.5933 97.0171 57.5933C96.2852 49.5701 96.0327 45.5396 95.787 45.54C95.542 45.5404 95.3038 49.5455 94.6043 57.5933C94.6043 57.5933 94.505 58.0616 93.9448 58.4286C93.5328 58.6957 93.4597 59.0001 93.449 59.1404V63.7155C93.449 63.7155 93.006 63.8961 92.6613 64.7406C92.5955 64.9043 92.5247 65.0795 92.4577 65.2452C92.3713 65.4592 92.2913 65.6573 92.2366 65.7942V72.5428H71.9173V65.7942C71.8177 65.5513 71.6411 65.1156 71.4903 64.7406C71.1456 63.8961 70.705 63.7155 70.705 63.7155V59.1404C70.6969 59.0001 70.6209 58.6957 70.2115 58.4286C69.6487 58.0616 69.5496 57.5933 69.5496 57.5933C68.8177 49.5701 68.5654 45.5396 68.3195 45.54C68.0743 45.5404 67.8355 49.5456 67.1345 57.5933C67.1345 57.5933 67.0327 58.0616 66.4725 58.4286C66.0605 58.6957 65.9895 59.0001 65.9814 59.1404V63.7155C65.9814 63.7155 65.5358 63.8961 65.1938 64.7406C65.043 65.1156 64.8664 65.5513 64.7667 65.7942V72.5428H64.7525V106.248H60.9281L59.7537 99.0532L58.5556 106.248H58.0598H54.1101V97.8288H54.103V97.5346C54.0646 97.4386 54.0115 97.3071 53.9525 97.161C53.8788 96.9783 53.7958 96.7727 53.721 96.5854C53.414 95.8299 53.0211 95.6742 53.0211 95.6742V91.5832C53.013 91.4564 52.9437 91.1847 52.5775 90.9473C52.0765 90.6208 51.9867 90.1974 51.9867 90.1974L50.9096 78.3992H50.9049L49.8278 90.1974C49.8278 90.1974 49.7382 90.6208 49.2346 90.9473C48.8684 91.1847 48.8015 91.4564 48.7934 91.5832V95.6742C48.7934 95.6742 48.3981 95.8299 48.0911 96.5854C47.9619 96.9091 47.8126 97.2821 47.721 97.5061V128.696L44.3573 131.449V166.824L45.3533 166.834Z" fill="#DE2F2F"/>
</mask>
<g mask="url(#mask0_0_5)">
<rect y="31.4301" width="112.879" height="116.911" rx="10" fill="white"/>
</g>
</g>
<defs>
<clipPath id="clip0_0_5">
<rect width="500" height="180" fill="white"/>
</clipPath>
</defs>
</svg>

<svg xmlns="http://www.w3.org/2000/svg" fill="none" viewBox="0 0 500 180"><g clip-path="url(#a)"><path fill="#fff" d="M0 0h500v180H0z"/><rect width="113" height="117" y="31" fill="#390B37" rx="10"/><path fill="#390B37" d="M160.32 135.73c-2.106.972-5.103 2.268-9.72 2.268-8.991 0-15.39-6.642-15.39-16.848 0-9.072 5.346-17.091 15.795-17.091 4.293 0 7.29 1.215 9.153 2.268l1.377-3.159c-1.458-1.053-5.427-2.43-10.206-2.43-11.583 0-20.007 8.424-20.007 20.736 0 11.664 7.452 19.845 18.63 19.845 5.67 0 9.72-1.701 11.421-2.511l-1.053-3.078zM170.14 140.51v-38.88h-3.888v38.88h3.888zm-1.944-53.379c-1.782 0-3.159 1.62-3.159 3.402s1.215 3.321 2.997 3.321c2.025 0 3.24-1.539 3.24-3.321 0-1.863-1.296-3.402-3.078-3.402zM181 94.502v7.128h-6.561v3.159H181v24.543c0 3.969.648 7.29 2.43 9.315 1.458 1.863 3.807 2.754 6.642 2.754 2.349 0 4.131-.405 5.427-.972l-.486-2.916c-.972.324-2.43.567-4.455.567-4.131 0-5.67-3.078-5.67-8.019v-25.272h11.097v-3.159h-11.097v-8.586L181 94.502zM198.46 101.63l14.418 36.045c.324.81.486 1.377.486 1.701 0 .405-.162.891-.486 1.701-1.944 4.617-4.536 7.857-6.48 9.801-2.268 2.187-4.86 3.564-6.804 4.293l1.215 3.24c.972-.324 3.726-1.458 6.804-4.05 5.103-4.455 8.424-11.664 13.122-23.733l11.664-28.998h-4.131l-9.477 25.191c-1.215 3.159-2.187 6.237-2.997 8.586h-.162a127.67 127.67 0 0 0-2.835-8.343l-10.206-25.434h-4.131zM273.56 135.73c-2.106.972-5.103 2.268-9.72 2.268-8.991 0-15.39-6.642-15.39-16.848 0-9.072 5.346-17.091 15.795-17.091 4.293 0 7.29 1.215 9.153 2.268l1.377-3.159c-1.458-1.053-5.427-2.43-10.206-2.43-11.583 0-20.007 8.424-20.007 20.736 0 11.664 7.452 19.845 18.63 19.845 5.67 0 9.72-1.701 11.421-2.511l-1.053-3.078zM296.26 100.74c-9.639 0-18.387 7.371-18.387 20.655 0 12.15 7.776 20.007 17.82 20.007 8.667 0 18.63-6.237 18.63-20.736 0-11.826-7.29-19.926-18.063-19.926zm-.081 3.24c10.287 0 14.256 9.801 14.256 16.929 0 9.963-6.399 17.253-14.499 17.253-7.938 0-14.175-7.29-14.175-17.01 0-8.343 4.455-17.172 14.418-17.172zM348.12 101.63h-3.888v24.219c0 1.539-.324 3.078-.729 4.293-1.701 3.888-5.832 7.857-11.502 7.857-7.695 0-10.287-6.075-10.287-14.499v-21.87h-3.888v22.599c0 14.661 8.343 17.172 13.284 17.172 6.885 0 11.34-4.212 13.284-7.857h.162l.243 6.966h3.645c-.243-2.997-.324-6.075-.324-9.477V101.63zM355.11 140.51h3.888v-24.057c0-1.215.243-2.511.486-3.483 1.539-5.022 6.237-8.91 11.664-8.91 8.019 0 10.773 6.399 10.773 13.446v23.004h3.888v-23.328c0-14.58-9.882-16.443-13.608-16.443-6.318 0-11.259 3.564-13.365 7.938h-.162l-.243-7.047h-3.645c.243 3.078.324 5.751.324 9.315v29.565zM420.65 135.73c-2.106.972-5.103 2.268-9.72 2.268-8.991 0-15.39-6.642-15.39-16.848 0-9.072 5.346-17.091 15.795-17.091 4.293 0 7.29 1.215 9.153 2.268l1.377-3.159c-1.458-1.053-5.427-2.43-10.206-2.43-11.583 0-20.007 8.424-20.007 20.736 0 11.664 7.452 19.845 18.63 19.845 5.67 0 9.72-1.701 11.421-2.511l-1.053-3.078zM432.09 140.51v-38.88h-3.888v38.88h3.888zm-1.944-53.379c-1.782 0-3.159 1.62-3.159 3.402s1.215 3.321 2.997 3.321c2.025 0 3.24-1.539 3.24-3.321 0-1.863-1.296-3.402-3.078-3.402zM439.87 140.51h3.888V84h-3.888v56.51zM161.21 69.385c-1.863.81-4.131 1.296-7.047 1.296-5.994 0-10.854-3.888-10.854-11.097-.081-6.48 4.131-11.097 10.611-11.097 3.24 0 5.427.567 6.885 1.215l1.944-9.153c-2.592-.972-6.156-1.539-9.396-1.539-14.742 0-22.68 9.477-22.68 21.06 0 12.393 8.181 20.25 20.979 20.25 4.698 0 8.829-.81 11.016-1.863l-1.458-9.072zM199.78 56.101c0-9.396-4.131-17.172-17.334-17.172-7.209 0-12.636 2.025-15.39 3.564l2.268 7.938c2.592-1.62 6.885-2.997 10.935-2.997 6.075 0 7.209 2.997 7.209 5.184v.486c-14.013 0-23.247 4.86-23.247 15.147 0 6.318 4.779 12.15 12.798 12.15 4.698 0 8.748-1.701 11.34-4.86h.243l.729 3.969h11.097c-.486-2.187-.648-5.832-.648-9.558V56.101zm-11.907 8.991c0 .729-.081 1.458-.243 2.106-.81 2.511-3.402 4.536-6.399 4.536-2.754 0-4.86-1.539-4.86-4.698 0-4.698 5.022-6.237 11.502-6.237v4.293zM205.72 79.51h12.312V56.668c0-1.134.081-2.268.405-3.078.891-2.268 2.916-4.617 6.318-4.617 4.455 0 6.237 3.483 6.237 8.586V79.51h12.312V56.101c0-11.664-6.075-17.091-14.175-17.091-6.642 0-10.611 3.807-12.231 6.399h-.243l-.567-5.508h-10.692c.162 3.564.324 7.695.324 12.636V79.51zM250.59 32.53v7.371h-5.265v9.072h5.265v16.2c0 5.589 1.134 9.396 3.402 11.745 2.025 2.025 5.346 3.402 9.315 3.402 3.402 0 6.399-.486 7.938-1.053l-.081-9.315c-1.134.243-1.944.324-3.645.324-3.645 0-4.86-2.187-4.86-6.966V48.973h8.829v-9.072h-8.829V29.209L250.59 32.53zM310.55 63.634c.162-.891.405-2.754.405-4.86 0-9.801-4.86-19.764-17.658-19.764-13.77 0-20.007 11.097-20.007 21.141 0 12.393 7.695 20.169 21.141 20.169 5.346 0 10.287-.81 14.337-2.511l-1.62-8.343c-3.321 1.134-6.723 1.701-10.935 1.701-5.751 0-10.854-2.43-11.178-7.533h25.515zm-25.596-8.424c.324-3.24 2.43-8.019 7.614-8.019 5.67 0 6.966 5.022 6.966 8.019h-14.58zM315.68 79.51h12.312V59.422c0-.972.081-1.944.243-2.754.81-3.807 3.888-6.237 8.424-6.237 1.377 0 2.349.162 3.321.324V39.172c-.891-.162-1.458-.243-2.592-.243-3.888 0-8.667 2.43-10.692 8.262h-.324l-.486-7.29h-10.53c.243 3.402.324 7.209.324 13.041V79.51zM343.78 67.684c0 4.455-.162 9.234-.324 11.826h10.449l.486-5.508h.162c2.754 4.698 7.29 6.399 11.907 6.399 9.072 0 18.063-7.128 18.063-21.384.081-12.15-6.804-20.007-16.281-20.007-5.508 0-9.639 2.187-11.988 5.589h-.162V22l-12.312 3v42.684zm12.312-10.854c0-.81.081-1.539.243-2.268.81-3.564 3.888-6.075 7.209-6.075 5.751 0 8.505 4.86 8.505 11.016 0 7.128-3.24 11.178-8.505 11.178-3.564 0-6.399-2.592-7.209-5.832-.162-.648-.243-1.377-.243-2.187V56.83zM426.05 39.901h-12.312v23.571c0 1.053-.162 1.944-.486 2.673-.729 1.944-2.754 4.293-6.156 4.293-4.374 0-6.237-3.483-6.237-9.234V39.901h-12.312v23.247c0 12.231 5.832 17.253 13.932 17.253 7.128 0 10.854-4.05 12.393-6.48h.243l.567 5.589h10.692a254.556 254.556 0 0 1-.324-12.717V39.901zM431.64 79.51h12.312V59.422c0-.972.081-1.944.243-2.754.81-3.807 3.888-6.237 8.424-6.237 1.377 0 2.349.162 3.321.324V39.172c-.891-.162-1.458-.243-2.592-.243-3.888 0-8.667 2.43-10.692 8.262h-.324l-.486-7.29h-10.53c.243 3.402.324 7.209.324 13.041V79.51zM458.52 39.901l14.58 36.288c.405.972.486 1.539.486 2.025s-.243 1.134-.648 1.782c-1.134 1.944-3.24 3.969-5.103 4.941-1.863 1.053-3.807 1.782-5.346 2.106l2.673 10.368c3.078-.324 7.614-1.701 11.826-5.427 4.455-3.969 8.262-10.206 13.932-26.001l9.234-26.082h-13.122l-4.941 19.44a453.652 453.652 0 0 0-1.701 7.452h-.324c-.486-2.106-1.296-5.103-1.944-7.371l-5.913-19.521H458.52z"/><mask id="b" width="75" height="126" x="44" y="45" maskUnits="userSpaceOnUse" style="mask-type:alpha"><path fill="#DE2F2F" fill-rule="evenodd" d="m45.353 166.83-1.008 3.227c9.048-3.175 22.633-4.793 22.633-4.793l.014-7.353c0-2.153.788-3.427 2.01-4.109l.006-16.237c0-9.597 3.031-18.583 13.068-22.846 9.694 4.269 13.077 12.641 13.077 22.808l.008 21.128c1.215 1.192 2.008 2.88 2.008 5.255l.014 1.221s10.124 1.152 21.817 4.091l-.055-13.051.012-10.565v-14.294l-2.531-2.62.002-10.802V97.502a77.237 77.237 0 0 1-.365-.92c-.31-.756-.702-.912-.702-.912v-4.09c-.011-.128-.08-.4-.446-.637-.504-.326-.589-.75-.589-.75l-1.077-11.798h-.007l-1.077 11.798s-.088.424-.588.75c-.369.238-.436.51-.442.636v4.091s-.397.156-.707.911c-.09.232-.195.491-.279.7l-.1.25v.294h-.005v8.419h-3.433l-1.208-7.195-1.174 7.195h-4.827V72.539h-.017V65.79c-.1-.243-.276-.678-.427-1.053-.342-.845-.783-1.025-.783-1.025v-4.576c-.01-.14-.084-.444-.496-.711-.563-.367-.662-.836-.662-.836-.732-8.023-.984-12.054-1.23-12.053-.245 0-.483 4.006-1.183 12.053 0 0-.099.469-.66.836-.411.267-.484.571-.495.711v4.576s-.443.18-.788 1.025l-.203.504c-.087.214-.167.412-.221.55v6.748h-20.32V65.79c-.099-.243-.276-.678-.426-1.053-.345-.845-.786-1.025-.786-1.025v-4.576c-.008-.14-.084-.444-.493-.711-.563-.367-.662-.836-.662-.836-.732-8.023-.984-12.054-1.23-12.053-.245 0-.484 4.006-1.185 12.053 0 0-.102.469-.662.836-.412.267-.483.571-.491.711v4.576s-.446.18-.788 1.025c-.15.375-.327.81-.427 1.053v6.749h-.014v33.705h-3.825l-1.174-7.195-1.198 7.195H54.11v-8.42h-.007v-.294a138.1 138.1 0 0 0-.15-.373l-.232-.576c-.307-.755-.7-.91-.7-.91v-4.092c-.008-.127-.077-.398-.443-.636-.501-.326-.591-.75-.591-.75L50.91 78.395h-.005l-1.077 11.798s-.09.424-.593.75c-.366.238-.433.51-.441.636v4.091s-.396.156-.703.911c-.129.324-.278.697-.37.921v31.19l-3.363 2.753v35.375l.996.01z" clip-rule="evenodd"/></mask><g mask="url(#b)"><rect width="112.88" height="116.91" y="31.43" fill="#fff" rx="10"/></g></g><defs><clipPath id="a"><path fill="#fff" d="M0 0h500v180H0z"/></clipPath></defs></svg>
